admin/src/theme/img/close_primary.svg

<svg width="24" height="24" viewBox="0 0 24 24" xmlns="http://www.w3.org/2000/svg">
  <g fill="none" fill-rule="evenodd">
    <path d="M0 0h24v24H0z"/>
    <path d="M21.8232233 3.83750902 20.162491 2.1767767c-.0976311-.09763108-.2559223-.09763108-.3535534 0l-7.6321609 7.63216089c-.0976311.09763107-.2559223.09763107-.3535534 0L4.19106241 2.1767767c-.09763107-.09763108-.25592232-.09763108-.35355339 0L2.1767767 3.83750902c-.09763108.09763107-.09763108.25592232 0 .35355339l7.63216089 7.63216089c.09763107.0976311.09763107.2559223 0 .3535534L2.1767767 19.8089376c-.09763108.0976311-.09763108.2559223 0 .3535534l1.66073232 1.6607323c.09763107.0976311.25592232.0976311.35355339 0l7.63216089-7.6321609c.0976311-.0976311.2559223-.0976311.3535534 0l7.6321609 7.6321609c.0976311.0976311.2559223.0976311.3535534 0l1.6607323-1.6607323c.0976311-.0976311.0976311-.2559223 0-.3535534l-7.6321609-7.6321609c-.0976311-.0976311-.0976311-.2559223 0-.3535534l7.6321609-7.63216089c.0976311-.09763107.0976311-.25592232 0-.35355339Z" stroke="#0066B5" fill="#0064AF" fill-rule="nonzero"/>
  </g>
</svg>

<?xml version="1.0" encoding="UTF-8"?>
<svg width="24px" height="24px" viewBox="0 0 24 24" version="1.1" xmlns="http://www.w3.org/2000/svg" xmlns:xlink="http://www.w3.org/1999/xlink">
    <g id="Digitaalinen-väyläkortti-(DVK)" stroke="none" stroke-width="1" fill="none" fill-rule="evenodd">
        <g id="dvk_main_fullscreen_search_result_harbor" transform="translate(-347.000000, -59.000000)">
            <g id="Form/Input-field/Empty" transform="translate(112.000000, 48.000000)">
                <g id="close_primary" transform="translate(235.000000, 11.000000)">
                    <polygon id="Path" points="0 0 24 0 24 24 0 24"></polygon>
                    <path d="M21.8232233,3.83750902 L20.162491,2.1767767 C20.0648599,2.07914562 19.9065687,2.07914562 19.8089376,2.1767767 L12.1767767,9.80893759 C12.0791456,9.90656866 11.9208544,9.90656866 11.8232233,9.80893759 L4.19106241,2.1767767 C4.09343134,2.07914562 3.93514009,2.07914562 3.83750902,2.1767767 L2.1767767,3.83750902 C2.07914562,3.93514009 2.07914562,4.09343134 2.1767767,4.19106241 L9.80893759,11.8232233 C9.90656866,11.9208544 9.90656866,12.0791456 9.80893759,12.1767767 L2.1767767,19.8089376 C2.07914562,19.9065687 2.07914562,20.0648599 2.1767767,20.162491 L3.83750902,21.8232233 C3.93514009,21.9208544 4.09343134,21.9208544 4.19106241,21.8232233 L11.8232233,14.1910624 C11.9208544,14.0934313 12.0791456,14.0934313 12.1767767,14.1910624 L19.8089376,21.8232233 C19.9065687,21.9208544 20.0648599,21.9208544 20.162491,21.8232233 L21.8232233,20.162491 C21.9208544,20.0648599 21.9208544,19.9065687 21.8232233,19.8089376 L14.1910624,12.1767767 C14.0934313,12.0791456 14.0934313,11.9208544 14.1910624,11.8232233 L21.8232233,4.19106241 C21.9208544,4.09343134 21.9208544,3.93514009 21.8232233,3.83750902 Z" id="Path" stroke="#0066B5" fill="#0064AF" fill-rule="nonzero"></path>
                </g>
            </g>
        </g>
    </g>
</svg>
